!!!COM: Palestrina, Giovanni Perluigi da
!!!OPR: Gabriel Archangelus
!!!OTL: Benedictus
**kern	**kern	**kern
*Icalto	*Icalto	*Icant
!Altus 2	!Altus 1	!Cantus
*clefG2	*clefG2	*clefG2
*k[b-]	*k[b-]	*k[b-]
*D:aeo	*D:aeo	*D:aeo
*M4/2	*M4/2	*M4/2
=1	=1	=1
0r	0a	0r
=2	=2	=2
0r	1d	0r
.	[1g	.
=3	=3	=3
0r	2g]	0dd
.	2f#	.
.	2.g	.
.	4f	.
=4	=4	=4
1r	1e-	1g
[1a	1d	[1dd
=5	=5	=5
1a]	2r	2dd]
.	2B-	2cc#
1d	2c	2.dd
.	[2G	.
.	.	4cc
=6	=6	=6
1.g	4G]	1b-
.	4A	.
.	4B-	.
.	4c	.
.	1d	2a
2f#	.	2a
=7	=7	=7
2.g	1G	2b-
.	.	2.g
4f	.	.
1e-	2r	.
.	.	4a
.	2g	4b-
.	.	4cc
=8	=8	=8
1d	2f	4dd
.	.	4ee
.	4d	2.ff
.	4e	.
2r	4f	.
.	4g	4ee
2A	2a	2cc
=9	=9	=9
2B-	2f	0dd
2.G	2.b-	.
4A	4a	.
4B-	[2g	.
4c	.	.
=10	=10	=10
1d	2g]	2r
.	2f#	2a
1G	[1g	2b-
.	.	4g
.	.	4a
=11	=11	=11
2r	1g]	4b-
.	.	4cc
2g	.	2.dd
2f	1r	.
.	.	4cc
4d	.	[2ff
4e	.	.
=12	=12	=12
4f	1r	2ff]
4g	.	.
2a	.	2ee
2f	2r	[1dd
[2b-	2G	.
=13	=13	=13
4b-]	2B-	2dd]
4a	.	.
1g	2c	4cc
.	.	4b-
.	1d	1a
2f#	.	.
=14	=14	=14
0g	2r	1g
.	2G	.
.	2B-	2r
.	2c	2g
=15	=15	=15
0r	2d	2b-
.	2e	2cc
.	2f	2dd
.	2c	2ee
=16	=16	=16
2r	1d	4ff
.	.	4ee
2G	.	4dd
.	.	4cc
2B-	2r	2dd
2c	2e	4cc
.	.	4b-
=17	=17	=17
1d	2.f	2.a
.	4g	4b-
2r	2a	2cc
2G	[2b-	[2dd
=18	=18	=18
2B-	2b-]	2dd]
2c	1a	2cc
2d	.	1b-
2e	2g	.
=19	=19	=19
2f	2a	[0a
2c	2e	.
1d	2.f	.
.	4e	.
=20	=20	=20
2r	2d	1a]
2e	2c#	.
2.f	1d	2r
.	.	2a
4g	.	.
=21	=21	=21
2a	2c	2cc
1b-	2B-	2dd
.	2c	2ee
[2a	2d	[2ff
=22	=22	=22
2a]	1B-	2ff]
2g	.	4ee
.	.	4dd
2a	1A	1cc
2e	.	.
=23	=23	=23
2.f	2r	0a
.	2d	.
4e	.	.
2d	2f	.
2c#	2e	.
=24	=24	=24
1d	2.f	2r
.	.	2a
.	4g	.
2c	2a	2cc
2B-	[2g	2dd
=25	=25	=25
2c	2g]	2ee
2d	2f	2.ff
1B-	2d	.
.	.	4ee
.	2d	[2dd
=26	=26	=26
1A	2f	2dd]
.	2e	2cc#
2r	2.f	1dd
2d	.	.
.	4g	.
=27	=27	=27
2f	2a	[0cc
2e	2.g	.
2.f	.	.
.	4f	.
.	[2f	.
4g	.	.
=28	=28	=28
2a	2f]	1cc]
1g	2e	.
.	2.d	2r
2f	.	2a
.	4c	.
=29	=29	=29
2d	1B-	2dd
2d	.	2dd
2f	1A	2.cc
2e	.	.
.	.	4b-
=30	=30	=30
2.f	0r	2a
.	.	1ff
4g	.	.
2a	.	.
[2g	.	2ee
=31	=31	=31
4g]	2r	1dd
4f	.	.
1f	2d	.
.	2g	1r
2e	2g	.
=32	=32	=32
2.d	2.f	1a
4c	4e	.
1B-	1d	2dd
.	.	2dd
=33	=33	=33
1A	2r	2.cc
.	2A	.
.	.	4b-
1r	2d	2a
.	2d	[2ff
=34	=34	=34
1r	2.c	2ff]
.	.	2.ee
.	4B-	.
2r	2A	.
.	.	4dd
2d	[2f	[2dd
=35	=35	=35
2g	4f]	4dd]
.	4e	4cc#
2g	2e	2cc#
2.f	2.d	[1dd
4e	4e	.
=36	=36	=36
1d	4f	2dd]
.	4g	.
.	2a	4cc
.	.	4b-
2r	2f	1a
2A	[2a	.
=37	=37	=37
2d	4a]	1f
.	4g	.
2d	1f	.
2.c	.	1g
.	2e	.
4B-	.	.
=38	=38	=38
2A	2.f	2.a
2.f	.	.
.	4e	4g
.	2d	4a
4e	.	4b-
2e	2c	[2a
=39	=39	=39
2.d	2B-	2a]
.	2B-	2g
4e	.	.
4f	1A	[1a
4g	.	.
2a	.	.
=40	=40	=40
2f	2r	1a]
2.a	2A	.
.	2d	2r
4g	.	.
[2f	2d	2d
=41	=41	=41
2f]	1c	2g
2e	.	2g
2.f	2r	1f
.	[2f	.
4e	.	.
=42	=42	=42
2d	2f]	2r
2c	2e	2a
2B-	2f	2dd
2B-	4e	2dd
.	4d	.
=43	=43	=43
1A	2e	1cc
.	2e	.
2r	2d	2ff
2A	2c#	2ee
=44	=44	=44
2d	2r	2dd
2d	2d	1ff
1c	2g	.
.	2g	2ee
=45	=45	=45
2r	2.f	2dd
1f	.	2cc
.	4e	.
.	2d	2dd
2e	2c	[2ee
=46	=46	=46
2f	2B-	4ee]
.	.	4dd
4e	2B-	1dd
4d	.	.
2e	1A	.
2e	.	2cc#
=47	=47	=47
[0d	[0d	[0dd
=48	=48	=48
0d]	0d]	0dd]
*-	*-	*-
!! B.Hosanna
**kern	**kern	**kern	**kern
*Ibass	*Itenor	*Icalto	*Icant
!Bassus	!Tenor	!Altus	!Cantus
*clefF4	*clefGv2	*clefG2	*clefG2
*k[b-]	*k[b-]	*k[b-]	*k[b-]
*D:aeo	*D:aeo	*D:aeo	*D:aeo
*M3/2	*M3/2	*M3/2	*M3/2
=49	=49	=49	=49
1r	2.A	1.r	1.r
.	4B-	.	.
2r	2c	.	.
=50	=50	=50	=50
1r	1d	1.r	2.a
.	.	.	4b-
2r	2c	.	2cc
=51	=51	=51	=51
1r	2f	1.r	1dd
.	1e	.	.
2r	.	.	2cc
=52	=52	=52	=52
1r	2.d	1.r	2.ff
.	4e	.	4ee
2r	4f	.	2dd
.	4g	.	.
=53	=53	=53	=53
1r	1a	1.r	2cc
.	.	.	1b-
2r	2g	.	.
=54	=54	=54	=54
2.A	1a	2.d	[1.a
4B-	.	4d	.
2c	2r	2e	.
=55	=55	=55	=55
1d	1.r	1f	1.a]
2c	.	2e	.
=56	=56	=56	=56
2.f	2.d	2.a	2r
.	.	.	2.a
4e	4e	4g	.
2d	2f	2f	.
.	.	.	4b-
=57	=57	=57	=57
2c	2.g	2e	2cc
1B-	.	1d	1dd
.	4f	.	.
.	2d	.	.
=58	=58	=58	=58
1.A	2e	2a	2cc
.	2.a	2A	2ff
.	.	2c	2ee
.	4g	.	.
=59	=59	=59	=59
1r	2f	2d	1dd
.	1e	1A	.
2r	.	.	2cc#
=60	=60	=60	=60
2.D	2.f	1d	[1.dd
4E	4e	.	.
2F	4d	2r	.
.	4c	.	.
=61	=61	=61	=61
1G	1B-	2.d	1.dd]
.	.	4e	.
2F	2A	2f	.
=62	=62	=62	=62
2B-	2G	1g	1.r
1A	1c	.	.
.	.	2f	.
=63	=63	=63	=63
2.G	[1.d	2.b-	1.r
4A	.	4a	.
4B-	.	2g	.
4c	.	.	.
=64	=64	=64	=64
1d	2d]	2f	2r
.	1A	1e	2r
2c#	.	.	2ee
=65	=65	=65	=65
1d	2r	2d	2.ff
.	2d	2r	.
.	.	.	4ee
2r	2f	2a	2cc
=66	=66	=66	=66
1r	2.B-	2.b-	2.dd
.	4c	4a	4cc
2r	2d	2f	2a
=67	=67	=67	=67
1r	2G	2.g	2.b-
.	1B-	.	.
.	.	4f	4cc
2r	.	2d	2dd
=68	=68	=68	=68
1r	2A	2e	2cc
.	2G	2.g	2.b-
2r	[2d	.	.
.	.	4f	4a
=69	=69	=69	=69
2r	2d]	1f	2f
2r	1c	.	1g
2c	.	2e	.
=70	=70	=70	=70
2.d	2r	[1.f	2f
.	2.f	.	2r
4c	.	.	.
2A	.	.	2cc
.	4e-	.	.
=71	=71	=71	=71
2.B-	2d	1.f]	2.dd
.	2B-	.	.
4A	.	.	4cc
2F	2c	.	2a
=72	=72	=72	=72
2G	2B-	2r	2.b-
2B-	2d	2r	.
.	.	.	4a
2A	2c	2a	2f
=73	=73	=73	=73
1G	1.d	2.b-	2g
.	.	.	2b-
.	.	4a	.
2r	.	2f	2a
=74	=74	=74	=74
2.G	1d	2.g	2.b-
4A	.	4f	4cc
2B-	2r	2d	2dd
=75	=75	=75	=75
2c	2g	2e	1cc
2.F	2.a	2.f	.
.	.	.	[2a
4G	4g	4e	.
=76	=76	=76	=76
2A	2e	2c	2a]
2D	2.f	2d	2.dd
[2A	.	2e	.
.	4e	.	4cc
=77	=77	=77	=77
2A]	2c	2f	1cc
1G	1d	1g	.
.	.	.	2b
=78	=78	=78	=78
2r	1c	1e	1cc
1c	.	.	.
.	2r	2g	2ee
=79	=79	=79	=79
2.d	1.r	2f	2.ff
.	.	2d	.
4c	.	.	4ee
2A	.	[2f	2cc
=80	=80	=80	=80
2.B-	2d	4f]	2.dd
.	.	4e-	.
.	2.f	2d	.
4A	.	.	4cc
2F	.	2c	2a
.	4e-	.	.
=81	=81	=81	=81
2.G	2d	2B-	2.b-
.	2B-	2.d	.
4F	.	.	4a
2D	[2d	.	4f
.	.	4c	4g
=82	=82	=82	=82
2.F	4d]	2A	4a
.	4c	.	4b-
.	4A	2f	2.cc
4G	4B-	.	.
2A	2c	2e	.
.	.	.	4b-
=83	=83	=83	=83
2F	2d	2d	1a
1G	1B-	2r	.
.	.	2d	2g
=84	=84	=84	=84
4D	2A	2.f	[1.a
4E	.	.	.
4F	2r	.	.
4G	.	4e	.
2A	2e	2c	.
=85	=85	=85	=85
2D	2.f	4d	2a]
.	.	4e	.
2d	.	4f	2r
.	4e	4g	.
2A	2c	[2a	2ee
=86	=86	=86	=86
2.d	4d	4a]	2.ff
.	4e	4g	.
.	4f	2f	.
4c	4g	.	4ee
2A	2a	2e	2cc
=87	=87	=87	=87
2B-	2g	2d	2dd
2c	2e	2g	2.ee
2B-	2f	[2b-	.
.	.	.	4dd
=88	=88	=88	=88
2G	2g	2b-]	1dd
1A	1e	2a	.
.	.	2e	2cc#
=89	=89	=89	=89
4D	2d	2.f	1dd
4E	.	.	.
4F	2r	.	.
4G	.	4e	.
2A	2e	2c	2r
=90	=90	=90	=90
2D	2.f	4d	2r
.	.	4e	.
2d	.	4f	2r
.	4e	4g	.
2A	2c	[2a	2ee
=91	=91	=91	=91
2.d	4d	4a]	2.ff
.	4e	4g	.
.	4f	2f	.
4c	4g	.	4ee
2A	2a	2e	2cc
=92	=92	=92	=92
2B-	2g	2d	2dd
2c	2e	2g	2.ee
2B-	2f	[2b-	.
.	.	.	4dd
=93	=93	=93	=93
2G	2g	2b-]	1dd
1A	1e	1a	.
.	.	.	2cc#
=94	=94	=94	=94
[1.D	[1.d	[1.a	[1.dd
=95	=95	=95	=95
1.D]	1.d]	1.a]	1.dd]
==	==	==	==
*-	*-	*-	*-
!!!CDT: 1525/^1526/-1594/2/2
!!!OCY: Italia
!!!AGN: Mass (Parody)
!!!AST: renaissance, vocal
!!!ASW: Motet 1532 (Verdelot)
!!!PWK: Masses, Book I
!!!RNB: Cadence finals: A,F
!!!YOR: Le Opere Complete, v. 1, p. 93
!!!YOO: Rome, Italy: Fratelli Scalera
!!!END: 1992//
!!!EED: John Miller
!!!YEC: Copyright 2000, John Miller
!!!YEN: United States of America
!!!YEM: Rights to all derivative electronic formats reserved.
!!!YEM: Refer to licensing agreement for further details.
!!!YEM: This file must be accompanied by the licensing agreement.
!!!YEM: A copy of the licensing agreement may be found at http://www.music-cog.ohio-state.edu/HumdrumDatabases/Palestrina/license.txt
!!!EMD: converted to Humdrum by Bret Aarden
